X: 6
T: Health To The Ladies
R: jig
M: 6/8
L: 1/8
K: Gmaj
|: g |dBG AGE | GED DEG | A/B/cB A^GA | BAA A2 g/e/ |
dBG A2 G | GED D2 G | AcB A^GA | BGG G2 :|
|: c |Bdd cee | Bdg dBG | B/c/dg dge | dBG A^GA |
B2 d c2 e | B2 d dBG | Ac/B/A AA/A/A | BGF G2 :|


Tune 327	Setting 327

